X: 105
T:Melancholy Martin
M:9/8
L:1/8
S:Playford
K:A
{EFG}A2 A BcA GFE | A2 A B2 B d3| A2 A BcA GFE |F2 F G2 E A3:|
|:AGF EDC DE F/2G/2|A2 E G2 A B3| A2 A BcA GFE | F2 F G2 E A3:|

